assets/images/icons/src/clone.svg

<?xml version="1.0" encoding="utf-8"?>
<!-- Generated by IcoMoon.io -->
<!DOCTYPE svg PUBLIC "-//W3C//DTD SVG 1.1//EN" "http://www.w3.org/Graphics/SVG/1.1/DTD/svg11.dtd">
<svg version="1.1" xmlns="http://www.w3.org/2000/svg" xmlns:xlink="http://www.w3.org/1999/xlink" width="14" height="14" viewBox="0 0 14 14">
<path fill="#444444" d="M13 12.75v-8.5q0-0.102-0.074-0.176t-0.176-0.074h-8.5q-0.102 0-0.176 0.074t-0.074 0.176v8.5q0 0.102 0.074 0.176t0.176 0.074h8.5q0.102 0 0.176-0.074t0.074-0.176zM14 4.25v8.5q0 0.516-0.367 0.883t-0.883 0.367h-8.5q-0.516 0-0.883-0.367t-0.367-0.883v-8.5q0-0.516 0.367-0.883t0.883-0.367h8.5q0.516 0 0.883 0.367t0.367 0.883zM11 1.25v1.25h-1v-1.25q0-0.102-0.074-0.176t-0.176-0.074h-8.5q-0.102 0-0.176 0.074t-0.074 0.176v8.5q0 0.102 0.074 0.176t0.176 0.074h1.25v1h-1.25q-0.516 0-0.883-0.367t-0.367-0.883v-8.5q0-0.516 0.367-0.883t0.883-0.367h8.5q0.516 0 0.883 0.367t0.367 0.883z"></path>
</svg>

<svg xmlns="http://www.w3.org/2000/svg" width="14" height="14" viewBox="0 0 14 14"><path fill="#444" d="M13 12.75v-8.5q0-.102-.074-.176T12.75 4h-8.5q-.102 0-.176.074T4 4.25v8.5q0 .102.074.176T4.25 13h8.5q.102 0 .176-.074T13 12.75zm1-8.5v8.5q0 .516-.367.883T12.75 14h-8.5q-.516 0-.883-.367T3 12.75v-8.5q0-.516.367-.883T4.25 3h8.5q.516 0 .883.367T14 4.25zm-3-3V2.5h-1V1.25q0-.102-.074-.176T9.75 1h-8.5q-.102 0-.176.074T1 1.25v8.5q0 .102.074.176T1.25 10H2.5v1H1.25q-.516 0-.883-.367T0 9.75v-8.5Q0 .734.367.367T1.25 0h8.5q.516 0 .883.367T11 1.25z"/></svg>
